Adwaita++/actions/symbolic/view-sort-descending-symbolic.svg

<svg height="16" width="16" xmlns="http://www.w3.org/2000/svg">
  <path d="m1.384 3h1.231a.38.38 0 0 1 .385.379v1.241a.38.38 0 0 1 -.385.38h-1.23a.38.38 0 0 1 -.385-.379v-1.241a.38.38 0 0 1 .384-.38zm0 4.016h1.231a.38.38 0 0 1 .385.378v1.243a.38.38 0 0 1 -.385.379h-1.23a.38.38 0 0 1 -.385-.38v-1.241a.38.38 0 0 1 .384-.378zm0 3.984h1.231a.38.38 0 0 1 .385.379v1.242a.38.38 0 0 1 -.385.379h-1.23a.38.38 0 0 1 -.385-.379v-1.241a.38.38 0 0 1 .384-.38zm5.616 1.781v-4h-3.063l5.125-5.781 5.125 5.781h-3.187v4z" fill="#474747"/>
</svg>

<svg xmlns="http://www.w3.org/2000/svg" width="16" height="16">
    <g color="#000" fill="#474747">
        <path d="M1.384 3h1.231A.38.38 0 0 1 3 3.379V4.62A.38.38 0 0 1 2.615 5h-1.23A.38.38 0 0 1 1 4.621V3.38A.38.38 0 0 1 1.384 3zM1.384 7.016h1.231A.38.38 0 0 1 3 7.394v1.243a.38.38 0 0 1-.385.379h-1.23A.38.38 0 0 1 1 8.636V7.395a.38.38 0 0 1 .384-.378zM1.384 11h1.231a.38.38 0 0 1 .385.379v1.242a.38.38 0 0 1-.385.379h-1.23A.38.38 0 0 1 1 12.621V11.38A.38.38 0 0 1 1.384 11zM7 12.781v-4H3.937L9.062 3l5.125 5.781H11v4z" style="marker:none" overflow="visible"/>
    </g>
</svg>
